img/logo/riot-logo.svg

<svg width="395" height="108" viewBox="0 0 395 108" fill="none" xmlns="http://www.w3.org/2000/svg">
<path d="M213.618 44.7794V44.5988C213.618 38.0885 211.623 33.3873 207.819 29.5893C203.38 25.1593 196.222 22.3564 184.987 22.3564H154V85.6435H175.202V67.5622H179.732L191.691 85.6442H215.881L201.114 64.1277C208.814 60.4199 213.618 54.0006 213.618 44.7794ZM192.507 46.3161C192.507 50.2044 189.426 52.4635 184.352 52.4635H175.202V40.0762H184.444C189.336 40.0762 192.507 42.0665 192.507 46.1355V46.3161ZM227.107 85.6435H248.306V22.3563H227.107L227.107 85.6435ZM295.323 21C275.754 21 260.622 35.6463 260.622 54.0003V54.181C260.622 72.5341 275.572 86.9999 295.142 87C314.713 87 329.842 72.3536 329.842 54.0005V53.8198C329.842 35.4656 314.894 21 295.323 21ZM308.462 54.181C308.462 61.5955 303.388 68.2846 295.323 68.2841C287.17 68.2841 282.004 61.5031 282.004 54.0003V53.8197C282.004 46.4063 287.079 39.7151 295.142 39.7151C303.297 39.7151 308.462 46.4966 308.462 54.0003V54.181ZM335.9 22.3564V40.2588H354.565V85.6434H375.764V40.2588H394.429V22.3563L335.9 22.3564Z" fill="#ED1846"/>
<path d="M0 1.00338C0 0.449229 0.447713 0 0.999997 0L75.3214 0C95.0262 0 110 16.0278 110 35.7992V39.7512C110 41.9603 108.209 43.7512 106 43.7512H89.2143C88.1097 43.7512 87.2143 42.8573 87.2143 41.7528C87.2143 39.6623 87.2143 36.5781 87.2143 35.7992C87.2143 29.2087 81.8897 23.8661 75.3214 23.8661L24.7857 23.8661C24.2334 23.8661 23.7857 24.3154 23.7857 24.8695L23.7857 106.394C23.7857 106.948 23.3367 107.4 22.7849 107.377C10.1126 106.851 0 96.3759 0 83.5314L0 1.00338Z" fill="#ED1846"/>
<path d="M44.6071 47.7323C44.0549 47.7323 43.605 48.1828 43.6278 48.7365C44.1524 61.4516 54.5916 71.5984 67.3928 71.5984H83.25C85.4394 71.5984 87.2143 73.3793 87.2143 75.5761V106.394C87.2143 106.948 87.6633 107.4 88.2151 107.377C100.887 106.851 111 96.3759 111 83.5314V75.5761C111 60.1984 98.5759 47.7323 83.25 47.7323L44.6071 47.7323Z" fill="#ED1846"/>
</svg>

<svg width="395" height="108" xmlns="http://www.w3.org/2000/svg"><g fill="#ED1846" fill-rule="nonzero"><path d="M213.618 44.78v-.181c0-6.51-1.995-11.212-5.799-15.01-4.439-4.43-11.597-7.233-22.832-7.233H154v63.288h21.202V67.562h4.53l11.959 18.082h24.19l-14.767-21.516c7.7-3.708 12.504-10.127 12.504-19.349zm-21.111 1.536c0 3.888-3.081 6.148-8.155 6.148h-9.15V40.076h9.242c4.892 0 8.063 1.99 8.063 6.06v.18zm34.6 39.328h21.199V22.356h-21.199v63.288zM295.323 21c-19.569 0-34.701 14.646-34.701 33v.181c0 18.353 14.95 32.819 34.52 32.819 19.571 0 34.7-14.646 34.7-33v-.18c0-18.354-14.948-32.82-34.519-32.82zm13.139 33.181c0 7.415-5.074 14.104-13.139 14.103-8.153 0-13.319-6.78-13.319-14.284v-.18c0-7.414 5.075-14.105 13.138-14.105 8.155 0 13.32 6.782 13.32 14.285v.181zM335.9 22.356V40.26h18.665v45.384h21.199V40.259h18.665V22.356H335.9zM0 1.647C0 .737.737 0 1.647 0h73.674C95.026 0 111 16.028 111 35.8v6.308c0 .91-.737 1.647-1.647 1.647H88.861a1.647 1.647 0 0 1-1.647-1.648V35.8c0-6.59-5.324-11.933-11.893-11.933H25.433c-.91 0-1.647.738-1.647 1.647v80.238c0 .909-.74 1.653-1.648 1.59C9.77 106.492 0 96.157 0 83.531V1.647z"/><path d="M45.254 47.732c-.91 0-1.653.74-1.591 1.648.843 12.412 11.145 22.218 23.73 22.218H83.25a3.971 3.971 0 0 1 3.964 3.978v30.175c0 .909.74 1.653 1.648 1.59C101.23 106.492 111 96.157 111 83.531v-7.955c0-15.378-12.424-27.844-27.75-27.844H45.254z"/></g></svg>
